X: 770
M: C
L: 1/8
K: G
V: 1
|: Gedc TB3A | Ggfe d3d |\
ecBA dBAG | ecdB A4 :|\
|: AGFE DEFG | ABcA B4 |
edcB AGAB | efga f4 |\
dgdB cecA BdBG A4 |\
V: 2 clef=bass middle=d
|: g4 G2d2 | e2dc B2b2 | c'4 b4 | c'2g2 d2D2 :|
|: d2D2 d2de | f2d2 g2G2 | c'bag d4 | c2A2 d2D2 |
b2g2 a2f2 | g2G2 d4 | e2dc Bedc | d2D2 G4 :|

